;START_OF_HEADER
;HEADER_VERSION:0.1
;FLAVOR:Griffin
;GENERATOR.NAME:Cura_SteamEngine
;GENERATOR.VERSION:4.8.0-beta
;GENERATOR.BUILD_DATE:2020-10-23
;TARGET_MACHINE.NAME:Ultimaker 3
;EXTRUDER_TRAIN.0.INITIAL_TEMPERATURE:205
;EXTRUDER_TRAIN.0.MATERIAL.VOLUME_USED:45074
;EXTRUDER_TRAIN.0.MATERIAL.GUID:506c9f0d-e3aa-4bd4-b2d2-23e2425b1aa9
;EXTRUDER_TRAIN.0.NOZZLE.DIAMETER:0.4
;EXTRUDER_TRAIN.0.NOZZLE.NAME:AA 0.4
;BUILD_PLATE.TYPE:glass
;BUILD_PLATE.INITIAL_TEMPERATURE:60
;PRINT.TIME:55324
;PRINT.GROUPS:1
;PRINT.SIZE.MIN.X:9
;PRINT.SIZE.MIN.Y:6
;PRINT.SIZE.MIN.Z:0.27
;PRINT.SIZE.MAX.X:144.118
;PRINT.SIZE.MAX.Y:182.618
;PRINT.SIZE.MAX.Z:74.07
;END_OF_HEADER
;Generated with Cura_SteamEngine 4.8.0-beta
T0
M82 ;absolute extrusion mode

G92 E0
M109 S205
G0 F15000 X9 Y6 Z2
G280
G1 F1500 E-6.5
;LAYER_COUNT:743
;LAYER:0
M107
M204 S625
M205 X6 Y6
G1 F600 Z2.27
G0 F4285.7 X89.446 Y37.07 Z2.27
M204 S500
M205 X5 Y5
;TYPE:SKIRT
G1 F600 Z0.27
G1 F1500 E0
G1 F1200 X89.773 Y36.402 E0.01322
G1 X90.169 Y35.771 E0.02646
G1 X90.51 Y35.327 E0.03641
G1 X91.012 Y34.777 E0.04965
G1 X91.612 Y34.251 E0.06384
G1 X92.053 Y33.907 E0.07378
G1 X92.663 Y33.481 E0.087
G1 X93.316 Y33.124 E0.10023
G1 X94.209 Y32.769 E0.11731
G1 X94.394 Y32.71 E0.12077
G1 X95.115 Y32.522 E0.13401
G1 X95.851 Y32.412 E0.14724
G1 X96.5 Y32.382 E0.15879
G1 X136.499 Y32.381 E0.86981
G1 X137.037 Y32.402 E0.87938
G1 X137.268 Y32.42 E0.8835
G1 X138.006 Y32.518 E0.89673
G1 X138.729 Y32.694 E0.90996
G1 X139.43 Y32.946 E0.9232
G1 X140.098 Y33.273 E0.93642
G1 X140.729 Y33.669 E0.94967
G1 X141.173 Y34.01 E0.95962
G1 X141.723 Y34.512 E0.97285
G1 X142.249 Y35.112 E0.98704
G1 X142.593 Y35.553 E0.99698
G1 X143.019 Y36.163 E1.01021
G1 X143.376 Y36.816 E1.02344
G1 X143.728 Y37.699 E1.04033
G1 X143.787 Y37.883 E1.04377
G1 X143.976 Y38.603 E1.057
G1 X144.086 Y39.339 E1.07023
G1 X144.118 Y39.999 E1.08197
G1 X144.118 Y175 E3.48175
G1 X144.085 Y175.712 E3.49442
G1 X143.993 Y176.451 E3.50766
G1 X143.823 Y177.175 E3.52088
G1 X143.576 Y177.877 E3.53411
G1 X143.255 Y178.549 E3.54734
G1 X142.864 Y179.182 E3.56057
G1 X142.536 Y179.617 E3.57025
G1 X142.491 Y179.672 E3.57152
G1 X141.989 Y180.222 E3.58475
G1 X141.391 Y180.747 E3.5989
G1 X140.949 Y181.092 E3.60887
G1 X140.339 Y181.518 E3.62209
G1 X139.686 Y181.876 E3.63533
G1 X138.791 Y182.231 E3.65244
G1 X138.606 Y182.29 E3.6559
G1 X137.885 Y182.478 E3.66914
G1 X137.149 Y182.588 E3.68237
G1 X136.5 Y182.618 E3.69392
G1 X96.5 Y182.618 E4.40496
G1 X95.788 Y182.585 E4.41763
G1 X95.049 Y182.493 E4.43087
G1 X94.325 Y182.323 E4.44409
G1 X93.623 Y182.076 E4.45731
G1 X92.951 Y181.755 E4.47055
G1 X92.318 Y181.364 E4.48378
G1 X91.872 Y181.027 E4.49372
G1 X91.816 Y180.981 E4.495
G1 X91.267 Y180.478 E4.50824
G1 X90.751 Y179.888 E4.52217
G1 X90.407 Y179.447 E4.53211
G1 X89.981 Y178.837 E4.54534
G1 X89.624 Y178.184 E4.55857
G1 X89.269 Y177.291 E4.57565
G1 X89.21 Y177.106 E4.5791
G1 X89.022 Y176.385 E4.59235
G1 X88.912 Y175.649 E4.60558
G1 X88.882 Y175 E4.61713
G1 X88.881 Y40.001 E7.01686
G1 X88.902 Y39.463 E7.02644
G1 X88.92 Y39.232 E7.03055
G1 X89.018 Y38.494 E7.04379
G1 X89.194 Y37.771 E7.05702
G1 X89.446 Y37.07 E7.07026
M204 S625
M205 X6 Y6
G0 F4285.7 X89.86 Y37.173
M204 S500
M205 X5 Y5
G1 F1200 X90.184 Y36.528 E7.08309
G1 X90.791 Y35.648 E7.10209
G1 X90.836 Y35.593 E7.10335
G1 X91.323 Y35.06 E7.11619
G1 X91.87 Y34.582 E7.1291
G1 X92.311 Y34.238 E7.13904
G1 X92.904 Y33.826 E7.15188
G1 X93.538 Y33.483 E7.16469
G1 X94.337 Y33.169 E7.17995
G1 X94.522 Y33.11 E7.1834
G1 X95.22 Y32.929 E7.19622
G1 X95.934 Y32.827 E7.20904
G1 X96.5 Y32.802 E7.21911
G1 X136.499 Y32.801 E7.93014
G1 X137.005 Y32.821 E7.93914
G1 X137.236 Y32.839 E7.94326
G1 X137.951 Y32.934 E7.95608
G1 X138.651 Y33.109 E7.9689
G1 X139.327 Y33.36 E7.98172
G1 X139.972 Y33.684 E7.99455
G1 X140.852 Y34.291 E8.01356
G1 X140.907 Y34.336 E8.01482
G1 X141.44 Y34.823 E8.02765
G1 X141.918 Y35.37 E8.04057
G1 X142.262 Y35.811 E8.05051
G1 X142.674 Y36.404 E8.06334
G1 X143.017 Y37.038 E8.07616
G1 X143.328 Y37.827 E8.09123
G1 X143.387 Y38.011 E8.09467
G1 X143.569 Y38.709 E8.10749
G1 X143.672 Y39.423 E8.12031
G1 X143.698 Y39.999 E8.13056
G1 X143.698 Y175 E10.53034
G1 X143.666 Y175.683 E10.54249
G1 X143.576 Y176.398 E10.5553
G1 X143.407 Y177.1 E10.56814
G1 X143.162 Y177.778 E10.58095
G1 X142.843 Y178.425 E10.59377
G1 X142.455 Y179.033 E10.6066
G1 X142.165 Y179.406 E10.61499
G1 X141.678 Y179.939 E10.62783
G1 X141.133 Y180.416 E10.6407
G1 X140.691 Y180.761 E10.65067
G1 X140.098 Y181.172 E10.6635
G1 X139.464 Y181.516 E10.67632
G1 X138.663 Y181.831 E10.69162
G1 X138.478 Y181.89 E10.69507
G1 X137.78 Y182.071 E10.70789
G1 X137.066 Y182.173 E10.72071
G1 X136.5 Y182.198 E10.73078
G1 X96.5 Y182.198 E11.44182
G1 X95.817 Y182.166 E11.45397
G1 X95.102 Y182.076 E11.46678
G1 X94.4 Y181.907 E11.47962
G1 X93.722 Y181.662 E11.49243
G1 X93.075 Y181.343 E11.50526
G1 X92.467 Y180.955 E11.51808
G1 X92.083 Y180.656 E11.52673
G1 X91.552 Y180.168 E11.53955
G1 X91.082 Y179.63 E11.55225
G1 X90.738 Y179.189 E11.56219
G1 X90.326 Y178.596 E11.57502
G1 X89.983 Y177.962 E11.58784
G1 X89.669 Y177.163 E11.6031
G1 X89.61 Y176.978 E11.60655
G1 X89.429 Y176.28 E11.61937
G1 X89.327 Y175.566 E11.63219
G1 X89.302 Y175 E11.64226
G1 X89.301 Y40.001 E14.042
G1 X89.321 Y39.495 E14.051
G1 X89.339 Y39.264 E14.05512
G1 X89.434 Y38.549 E14.06794
G1 X89.609 Y37.849 E14.08077
G1 X89.86 Y37.173 E14.09359
M204 S625
M205 X6 Y6
G0 F4285.7 X90.272 Y37.278
M204 S500
M205 X5 Y5
G1 F1200 X90.594 Y36.658 E14.106
G1 X91.116 Y35.914 E14.12216
G1 X91.161 Y35.859 E14.12342
G1 X91.633 Y35.345 E14.13583
G1 X92.128 Y34.913 E14.14751
G1 X92.569 Y34.569 E14.15745
G1 X93.143 Y34.172 E14.16985
G1 X93.759 Y33.844 E14.18226
G1 X94.465 Y33.569 E14.19573
G1 X94.65 Y33.51 E14.19918
G1 X95.325 Y33.336 E14.21157
G1 X96.017 Y33.241 E14.22399
G1 X96.5 Y33.222 E14.23258
G1 X136.499 Y33.221 E14.9436
G1 X137.203 Y33.257 E14.95613
G1 X137.894 Y33.351 E14.96853
G1 X138.571 Y33.524 E14.98095
G1 X139.222 Y33.772 E14.99333
G1 X139.842 Y34.094 E15.00575
G1 X140.586 Y34.616 E15.02191
G1 X140.641 Y34.661 E15.02317
G1 X141.155 Y35.133 E15.03558
G1 X141.587 Y35.628 E15.04725
G1 X141.931 Y36.069 E15.0572
G1 X142.328 Y36.643 E15.0696
G1 X142.656 Y37.259 E15.08201
G1 X142.928 Y37.955 E15.09529
G1 X142.987 Y38.139 E15.09873
G1 X143.162 Y38.815 E15.11114
G1 X143.258 Y39.506 E15.12354
G1 X143.278 Y39.999 E15.13231
G1 X143.278 Y175 E17.53209
G1 X143.247 Y175.653 E17.54371
G1 X143.159 Y176.346 E17.55612
G1 X142.992 Y177.023 E17.56852
G1 X142.748 Y177.677 E17.58093
G1 X142.432 Y178.299 E17.59333
G1 X141.885 Y179.085 E17.61035
G1 X141.84 Y179.14 E17.61161
G1 X141.368 Y179.654 E17.62402
G1 X140.874 Y180.085 E17.63567
G1 X140.432 Y180.43 E17.64564
G1 X139.858 Y180.827 E17.65805
G1 X139.243 Y181.156 E17.67044
G1 X138.535 Y181.431 E17.68395
G1 X138.35 Y181.49 E17.6874
G1 X137.675 Y181.664 E17.69979
G1 X136.983 Y181.759 E17.7122
G1 X136.5 Y181.778 E17.7208
G1 X96.5 Y181.778 E18.43184
G1 X95.847 Y181.747 E18.44346
G1 X95.154 Y181.659 E18.45587
G1 X94.477 Y181.492 E18.46827
G1 X93.823 Y181.248 E18.48068
G1 X93.201 Y180.932 E18.49308
G1 X92.405 Y180.378 E18.51032
G1 X92.349 Y180.332 E18.51161
G1 X91.837 Y179.859 E18.524
G1 X91.413 Y179.372 E18.53548
G1 X91.069 Y178.931 E18.54542
G1 X90.672 Y178.357 E18.55782
G1 X90.344 Y177.741 E18.57023
G1 X90.069 Y177.035 E18.5837
G1 X90.01 Y176.85 E18.58715
G1 X89.836 Y176.175 E18.59954
G1 X89.741 Y175.483 E18.61196
G1 X89.722 Y175 E18.62055
G1 X89.721 Y40.001 E21.02029
G1 X89.757 Y39.297 E21.03282
G1 X89.851 Y38.606 E21.04522
G1 X90.024 Y37.929 E21.05764
G1 X90.272 Y37.278 E21.07002
M204 S625
M205 X6 Y6
G0 F4285.7 X90.685 Y37.385
M204 S500
M205 X5 Y5
G1 F1200 X91.004 Y36.792 E21.08199
G1 X91.441 Y36.18 E21.09536
G1 X91.486 Y36.125 E21.09662
G1 X91.942 Y35.63 E21.10858
G1 X92.387 Y35.244 E21.11906
G1 X92.828 Y34.9 E21.129
G1 X93.382 Y34.518 E21.14096
G1 X93.978 Y34.205 E21.15293
G1 X94.592 Y33.969 E21.16462
G1 X94.777 Y33.91 E21.16807
G1 X95.43 Y33.744 E21.18005
G1 X96.097 Y33.656 E21.19201
G1 X96.5 Y33.642 E21.19918
G1 X136.499 Y33.641 E21.9102
G1 X137.17 Y33.676 E21.92214
G1 X137.837 Y33.768 E21.93411
G1 X138.489 Y33.939 E21.94609
G1 X139.115 Y34.185 E21.95805
G1 X139.708 Y34.504 E21.97002
G1 X140.32 Y34.941 E21.98338
G1 X140.375 Y34.986 E21.98465
G1 X140.87 Y35.442 E21.99661
G1 X141.256 Y35.887 E22.00708
G1 X141.6 Y36.328 E22.01703
G1 X141.982 Y36.882 E22.02899
G1 X142.295 Y37.478 E22.04095
G1 X142.528 Y38.084 E22.0525
G1 X142.587 Y38.268 E22.05593
G1 X142.754 Y38.92 E22.06789
G1 X142.843 Y39.587 E22.07986
G1 X142.858 Y39.999 E22.08718
G1 X142.858 Y175 E24.48696
G1 X142.828 Y175.624 E24.49806
G1 X142.742 Y176.292 E24.51004
G1 X142.576 Y176.944 E24.522
G1 X142.335 Y177.573 E24.53397
G1 X142.021 Y178.168 E24.54593
G1 X141.56 Y178.819 E24.56011
G1 X141.515 Y178.874 E24.56137
G1 X141.059 Y179.369 E24.57334
G1 X140.616 Y179.754 E24.58377
G1 X140.174 Y180.099 E24.59374
G1 X139.619 Y180.481 E24.60571
G1 X139.024 Y180.794 E24.61766
G1 X138.408 Y181.031 E24.6294
G1 X138.223 Y181.09 E24.63285
G1 X137.57 Y181.256 E24.64482
G1 X136.903 Y181.344 E24.65678
G1 X136.5 Y181.358 E24.66395
G1 X96.5 Y181.358 E25.37499
G1 X95.876 Y181.328 E25.3861
G1 X95.208 Y181.242 E25.39807
G1 X94.556 Y181.076 E25.41003
G1 X93.927 Y180.835 E25.422
G1 X93.332 Y180.521 E25.43396
G1 X92.672 Y180.053 E25.44834
G1 X92.616 Y180.007 E25.44963
G1 X92.122 Y179.55 E25.46159
G1 X91.744 Y179.113 E25.47186
G1 X91.4 Y178.672 E25.48181
G1 X91.018 Y178.118 E25.49377
G1 X90.705 Y177.522 E25.50574
G1 X90.469 Y176.908 E25.51743
G1 X90.41 Y176.723 E25.52088
G1 X90.244 Y176.07 E25.53286
G1 X90.156 Y175.403 E25.54482
G1 X90.142 Y175 E25.55198
G1 X90.141 Y40.001 E27.95172
G1 X90.176 Y39.33 E27.96367
G1 X90.268 Y38.663 E27.97564
G1 X90.439 Y38.011 E27.98762
G1 X90.685 Y37.385 E27.99957
M204 S625
M205 X6 Y6
G0 F4285.7 X91.097 Y37.495
M204 S500
M205 X5 Y5
G1 F1200 X91.414 Y36.93 E28.01109
G1 X91.766 Y36.446 E28.02173
G1 X91.811 Y36.391 E28.02299
G1 X92.251 Y35.915 E28.03451
G1 X92.645 Y35.575 E28.04377
G1 X93.086 Y35.231 E28.05371
G1 X93.62 Y34.865 E28.06522
G1 X94.196 Y34.568 E28.07674
G1 X94.72 Y34.369 E28.0867
G1 X94.905 Y34.31 E28.09015
G1 X95.533 Y34.152 E28.10166
G1 X96.176 Y34.072 E28.11318
G1 X96.5 Y34.062 E28.11894
G1 X136.499 Y34.061 E28.82996
G1 X137.138 Y34.095 E28.84134
G1 X137.779 Y34.185 E28.85284
G1 X138.405 Y34.353 E28.86437
G1 X139.005 Y34.597 E28.87588
G1 X139.57 Y34.914 E28.8874
G1 X140.054 Y35.266 E28.89803
G1 X140.109 Y35.311 E28.8993
G1 X140.585 Y35.751 E28.91082
G1 X140.925 Y36.145 E28.92007
G1 X141.269 Y36.586 E28.93001
G1 X141.635 Y37.12 E28.94152
G1 X141.932 Y37.696 E28.95304
G1 X142.128 Y38.212 E28.96285
G1 X142.187 Y38.396 E28.96629
G1 X142.347 Y39.024 E28.97781
G1 X142.427 Y39.667 E28.98933
G1 X142.438 Y39.999 E28.99523
G1 X142.438 Y175 E31.39501
G1 X142.409 Y175.595 E31.40559
G1 X142.324 Y176.237 E31.41711
G1 X142.161 Y176.864 E31.42862
G1 X141.922 Y177.466 E31.44014
G1 X141.61 Y178.034 E31.45166
G1 X141.235 Y178.553 E31.46304
G1 X141.19 Y178.608 E31.4643
G1 X140.75 Y179.084 E31.47582
G1 X140.357 Y179.423 E31.48505
G1 X139.915 Y179.768 E31.49502
G1 X139.381 Y180.134 E31.50652
G1 X138.806 Y180.432 E31.51804
G1 X138.28 Y180.631 E31.52803
G1 X138.095 Y180.69 E31.53149
G1 X137.467 Y180.848 E31.543
G1 X136.824 Y180.928 E31.55451
G1 X136.5 Y180.938 E31.56028
G1 X96.5 Y180.938 E32.27132
G1 X95.905 Y180.909 E32.28191
G1 X95.263 Y180.824 E32.29342
G1 X94.636 Y180.661 E32.30493
G1 X94.034 Y180.422 E32.31645
G1 X93.466 Y180.11 E32.32797
G1 X92.939 Y179.729 E32.33953
G1 X92.883 Y179.683 E32.34081
G1 X92.408 Y179.242 E32.35234
G1 X92.075 Y178.855 E32.36141
G1 X91.731 Y178.414 E32.37135
G1 X91.365 Y177.88 E32.38286
G1 X91.068 Y177.304 E32.39438
G1 X90.869 Y176.78 E32.40435
G1 X90.81 Y176.595 E32.4078
G1 X90.652 Y175.967 E32.41931
G1 X90.572 Y175.324 E32.43083
G1 X90.562 Y175 E32.43659
G1 X90.561 Y40.001 E34.83633
G1 X90.595 Y39.362 E34.8477
G1 X90.685 Y38.721 E34.85921
G1 X90.853 Y38.095 E34.87073
G1 X91.097 Y37.495 E34.88224
M204 S625
M205 X6 Y6
G0 F4285.7 X91.51 Y37.609
M204 S500
M205 X5 Y5
G1 F1200 X91.823 Y37.072 E34.89329
G1 X92.136 Y36.656 E34.90255
G1 X92.559 Y36.202 E34.91358
G1 X92.903 Y35.907 E34.92163
G1 X93.344 Y35.563 E34.93157
G1 X93.858 Y35.213 E34.94263
G1 X94.412 Y34.932 E34.95367
G1 X95.032 Y34.71 E34.96538
G1 X95.635 Y34.56 E34.97642
G1 X96.5 Y34.482 E34.99186
G1 X136.499 Y34.481 E35.70288
G1 X137.105 Y34.514 E35.71367
G1 X137.72 Y34.602 E35.72471
G1 X138.319 Y34.768 E35.73576
G1 X138.891 Y35.01 E35.7468
G1 X139.428 Y35.323 E35.75785
G1 X139.844 Y35.636 E35.76711
G1 X140.298 Y36.059 E35.77814
G1 X140.593 Y36.403 E35.78619
G1 X140.937 Y36.844 E35.79613
G1 X141.287 Y37.358 E35.80719
G1 X141.568 Y37.912 E35.81823
G1 X141.787 Y38.524 E35.82979
G1 X141.939 Y39.127 E35.84084
G1 X142.018 Y39.999 E35.8564
G1 X142.018 Y175 E38.25618
G1 X141.99 Y175.566 E38.26625
G1 X141.907 Y176.181 E38.27728
G1 X141.746 Y176.781 E38.28833
G1 X141.509 Y177.356 E38.29938
G1 X141.2 Y177.895 E38.31043
G1 X140.865 Y178.343 E38.32037
G1 X140.442 Y178.797 E38.3314
G1 X140.099 Y179.091 E38.33943
G1 X139.657 Y179.436 E38.3494
G1 X139.144 Y179.786 E38.36044
G1 X138.59 Y180.068 E38.37149
G1 X137.968 Y180.29 E38.38323
G1 X137.365 Y180.44 E38.39427
G1 X136.5 Y180.518 E38.40971
G1 X96.5 Y180.518 E39.12075
G1 X95.934 Y180.49 E39.13082
G1 X95.319 Y180.407 E39.14185
G1 X94.719 Y180.246 E39.1529
G1 X94.144 Y180.009 E39.16395
G1 X93.605 Y179.7 E39.175
G1 X93.149 Y179.358 E39.18513
G1 X92.695 Y178.934 E39.19617
G1 X92.407 Y178.597 E39.20405
G1 X92.063 Y178.156 E39.21399
G1 X91.713 Y177.642 E39.22505
G1 X91.432 Y177.088 E39.23609
G1 X91.21 Y176.468 E39.2478
G1 X91.06 Y175.865 E39.25884
G1 X90.982 Y175 E39.27428
G1 X90.981 Y40.001 E41.67402
G1 X91.014 Y39.395 E41.68481
G1 X91.102 Y38.78 E41.69585
G1 X91.268 Y38.181 E41.7069
G1 X91.51 Y37.609 E41.71794
M204 S625
M205 X6 Y6
G0 F4285.7 X91.682 Y38.269
M204 S500
M205 X5 Y5
G1 F1200 X91.921 Y37.726 E41.72849
G1 X92.231 Y37.22 E41.73904
G1 X92.461 Y36.922 E41.74573
G1 X92.867 Y36.489 E41.75628
G1 X93.162 Y36.238 E41.76316
G1 X93.603 Y35.894 E41.77311
G1 X94.094 Y35.561 E41.78365
G1 X94.626 Y35.297 E41.79421
G1 X95.16 Y35.11 E41.80427
G1 X95.736 Y34.969 E41.81481
G1 X96.5 Y34.902 E41.82844
G1 X136.499 Y34.901 E42.53946
G1 X137.073 Y34.932 E42.54968
G1 X137.66 Y35.018 E42.56023
G1 X138.231 Y35.182 E42.57079
G1 X138.774 Y35.421 E42.58133
G1 X139.28 Y35.731 E42.59188
G1 X139.578 Y35.961 E42.59857
G1 X140.011 Y36.367 E42.60912
G1 X140.262 Y36.662 E42.61601
G1 X140.606 Y37.103 E42.62595
G1 X140.939 Y37.594 E42.6365
G1 X141.203 Y38.126 E42.64705
G1 X141.387 Y38.652 E42.65696
G1 X141.53 Y39.229 E42.66753
G1 X141.598 Y39.999 E42.68127
G1 X141.598 Y175 E45.08104
G1 X141.571 Y175.536 E45.09058
G1 X141.49 Y176.124 E45.10113
G1 X141.331 Y176.696 E45.11169
G1 X141.096 Y177.242 E45.12225
G1 X140.79 Y177.75 E45.13279
G1 X140.54 Y178.077 E45.14011
G1 X140.134 Y178.51 E45.15066
G1 X139.84 Y178.76 E45.15752
G1 X139.398 Y179.105 E45.16749
G1 X138.907 Y179.438 E45.17804
G1 X138.375 Y179.702 E45.18859
G1 X137.84 Y179.89 E45.19867
G1 X137.264 Y180.031 E45.20921
G1 X136.5 Y180.098 E45.22285
G1 X96.5 Y180.098 E45.93389
G1 X95.964 Y180.071 E45.94343
G1 X95.376 Y179.99 E45.95398
G1 X94.804 Y179.831 E45.96453
G1 X94.258 Y179.596 E45.9751
G1 X93.75 Y179.29 E45.98564
G1 X93.416 Y179.034 E45.99312
G1 X92.983 Y178.627 E46.00368
G1 X92.738 Y178.338 E46.01042
G1 X92.394 Y177.897 E46.02036
G1 X92.061 Y177.406 E46.03091
G1 X91.797 Y176.874 E46.04146
G1 X91.61 Y176.34 E46.05152
G1 X91.469 Y175.764 E46.06206
G1 X91.402 Y175 E46.0757
G1 X91.401 Y40.001 E48.47543
G1 X91.432 Y39.427 E48.48565
G1 X91.518 Y38.84 E48.4962
G1 X91.682 Y38.269 E48.50676
M204 S625
M205 X6 Y6
G0 F4285.7 X92.096 Y38.361
M204 S500
M205 X5 Y5
G1 F1200 X92.333 Y37.848 E48.5168
G1 X92.741 Y37.243 E48.52978
G1 X92.786 Y37.188 E48.53104
G1 X93.173 Y36.778 E48.54106
G1 X93.42 Y36.569 E48.54681
G1 X93.861 Y36.225 E48.55675
G1 X94.33 Y35.91 E48.5668
G1 X95.103 Y35.57 E48.58181
G1 X95.288 Y35.511 E48.58526
G1 X95.836 Y35.378 E48.59528
G1 X96.5 Y35.322 E48.60713
